svg/home_thermometer_outline.svg

<svg xmlns="http://www.w3.org/2000/svg" viewBox="0 0 24 24"><path d="M12 2 2 12h2v9h16v-9h2M12 5l6 6v8H6v-8m6-3c-.55 0-1 .45-1 1v4.27a2 2 0 1 0 2 0V9c0-.55-.45-1-1-1"/></svg>

<?xml version="1.0" encoding="UTF-8"?><!DOCTYPE svg PUBLIC "-//W3C//DTD SVG 1.1//EN" "http://www.w3.org/Graphics/SVG/1.1/DTD/svg11.dtd"><svg xmlns="http://www.w3.org/2000/svg" xmlns:xlink="http://www.w3.org/1999/xlink" version="1.1" id="mdi-home-thermometer-outline" width="24" height="24" viewBox="0 0 24 24"><path d="M12 2L2 12H4V21H20V12H22M12 5L18 11V19H6V11M12 8C11.45 8 11 8.45 11 9V13.27C10.38 13.63 10 14.29 10 15C10 16.11 10.9 17 12 17S14 16.11 14 15C14 14.29 13.62 13.63 13 13.27V9C13 8.45 12.55 8 12 8Z" /></svg>
